X:3404
T:La Joli Tambor
O:england
C:Trad., arr. Chris Layer
S:Hamish Moore's School of Piping
M:6/8
L:1/8
K:D
a3 f2e|{g}d3 -d2A|{g}d2e f2g|{fg}f3 e3|
{geg}e3 e2f|{geg}e3 -e2{g}e|{g}f2g a2a|a2g f2e|
d3 cd{A}d|{g}A3 -A2{g}A|{g}d2e {g}f2g|{fg}f3 e3|
d3 -d3||


